**kern	**kern	**kern	**kern	**harm
*staff4	*staff3	*staff2	*staff1	*staff1
=1-	=1-	=1-	=1-	=1-
*clefF4	*clefF4	*clefG2	*clefG2	*
*k[b-e-a-d-g-c-]	*k[b-e-a-d-g-c-]	*k[b-e-a-d-g-c-]	*k[b-e-a-d-g-c-]	*
*M2/4	*M2/4	*M2/4	*M2/4	*
*	*	*	*MM132	*
*G-:	*G-:	*G-:	*G-:	*G-:
2r	2r	4r	4r	.
.	.	8r	8r	.
.	.	8b-/	8dd-\	I
=2	=2	=2	=2	=2
2r	2r	8cc-/L	8ee-\L	I
.	.	8b-/J	8dd-\J	.
.	.	8a-/L	8cc-/L	.
.	.	8g-/J	8b-/J	.
=3	=3	=3	=3	=3
4c\	4e-\	4g-/	4.a-/	V6/V
4d-\	4d-\	4f/	.	V7
.	.	.	8cc-/	.
=4	=4	=4	=4	=4
4G-\	4d-\	4g-/	8b-\L	I
.	.	.	8gg-\J	.
4r	4r	8r	8dd-\L	.
.	.	8b-/	8dd-\J	.
=5	=5	=5	=5	=5
2r	2r	8cc-/L	8ee-\L	I
.	.	8b-/J	8dd-\J	.
.	.	8a-/L	8cc-/L	.
.	.	8g-/J	8b-/J	.
=6	=6	=6	=6	=6
!!linebreak:original
4C-/	4e-\	4g-/	4.a-/	ii65
4D-/	8d-\L	4f/	.	V7
.	8c-\J	.	16cc-/LL	.
.	.	.	16a-/JJ	.
=7	=7	=7	=7	=7
4GG-/	4B-\	4g-/	4g-/	I
8r	8r	4r	4r	.
8B-\	8d-\	.	.	.
=8	=8	=8	=8	=8
8c-\L	8e-\L	2r	2r	I
8B-\J	8d-\J	.	.	.
8A-\L	8c-\L	.	.	.
8G-\J	8B-\J	.	.	.
=9	=9	=9	=9	=9
2F\	2A-\	[2d-/	8r	V6
.	.	.	8ddd-\	.
.	.	.	8dd-/L	.
.	.	.	8cc-/J	.
=10	=10	=10	=10	=10
4G-\	4B-\	4d-/]	8b-\L	I
.	.	.	8gg-\J	.
8r	8r	4r	4dd-'\	.
8B-\	8d-\	.	.	.
=11	=11	=11	=11	=11
8c-\L	8e-\L	2r	2r	I
8B-\J	8d-\J	.	.	.
8A-\L	8c-\L	.	.	.
8G-\J	8B-\J	.	.	.
=12	=12	=12	=12	=12
4.F\	4.A-\	2r	8r	V6
.	.	.	8ddd-\	.
.	.	.	[4dd-\	.
*	*clefG2	*	*	*
8f\	8a-/	.	.	.
=13	=13	=13	=13	=13
!!linebreak:original
4.e-\	4.g-/	8r	8dd-\L]	IV6
.	.	8b-/	8gg-\J	.
.	.	8cc-\L	[4cc-/	.
*	*clefF4	*	*	*
8E-/	8G-\	8ccc-\J	.	.
=14	=14	=14	=14	=14
4.D-/	4.F\	2r	8cc-\L]	iii6
.	.	.	8bb-\J	.
.	.	.	[4b-/	.
*	*clefG2	*	*	*
8d-\	8f/	.	.	.
=15	=15	=15	=15	=15
4.c-\	4.e-/	8r	8b-/L]	ii6
.	.	8g/	8ee-/J	.
.	.	8a-\L	[4a-/	.
8C-/	8ee-\	8aa-\J	.	.
=16	=16	=16	=16	=16
4.BB-/	4.dd-\	2r	8a-\L]	I6
.	.	.	8gg-\J	.
.	.	.	4g-/	.
8B-\	8d-/	.	.	.
=17	=17	=17	=17	=17
*	*clefF4	*	*	*
4A-\	8c-\L	8r	8f/	viio6
.	8A-\J	4f/	4cc-/	.
4G-\	8G-\L	.	.	I
.	8B-\J	8g-/	8b-/	.
=18	=18	=18	=18	=18
!!pagebreak:original
4c-\	4c-\	2e-/	8ee-\	ii6
.	.	.	4a-/	.
*D-:	*D-:	*D-:	*D-:	*D-:
4c\	4c\	.	.	viio
.	.	.	8g-/	.
=19	=19	=19	=19	=19
4d-\	4d-\	4d-/	8f/	I
.	.	.	4aa-\	.
4r	4f\	4a-/	.	.
.	.	.	[8dd-\	.
=20	=20	=20	=20	=20
2r	4e-\	4g-/	8dd-\]	V7
.	.	.	4cc/	.
.	4A-\	4e-/	.	.
.	.	.	[8gg-\	.
=21	=21	=21	=21	=21
2r	4d-\	4d-/	8gg-\]	I
.	.	.	4ff\	.
*	*clefG2	*	*	*
.	4dd-\	4r	.	.
.	.	.	[8ddd-\	.
=22	=22	=22	=22	=22
4r	4r	4r	8ddd-\]	viio65/V
.	.	.	4gg\	.
*	*clefF4	*	*	*
4B-\	4d-\	4f-/	.	.
.	.	.	[8ddd-\	.
=23	=23	=23	=23	=23
4r	4r	4r	8ddd-\]	viio65/V
.	.	.	4ff-\	.
4B-\	4d-\	4g/	.	.
.	.	.	[8ddd-\	.
=24	=24	=24	=24	=24
4r	4r	4r	8ddd-\]	viio65/V
.	.	.	4gg\	.
4B-\	4d-\	4f-/	.	.
.	.	.	[8ddd-\	.
=25	=25	=25	=25	=25
!!linebreak:original
4r	4r	4r	8ddd-\]	viio65/V
.	.	.	4ff-\	.
4B-\	4d-\	4g/	.	.
.	.	.	[8ddd-\	.
=26	=26	=26	=26	=26
4r	4r	4r	8ddd-\]	V65/V
.	.	.	4ee-\	.
4G\	4d-\	4b-/	.	.
.	.	.	[8fff\	.
=27	=27	=27	=27	=27
4r	4r	4r	8fff\]	V65/V
.	.	.	4eee-\	.
*	*clefG2	*	*	*
4G\	4b-/	4ee-\	.	.
.	.	.	8ddd-\	.
=28	=28	=28	=28	=28
4r	4r	8aa-\	8ccc\	V7
.	.	4gg-\	4eee-\	.
4A-\	4cc/	.	.	.
.	.	[8gg-\	[8ccc\	.
=29	=29	=29	=29	=29
4A-\	4r	8gg-\]	8ccc\]	.
.	.	4ff\	4ddd-\	I64
4A-\	4a-/	.	.	.
.	.	[8ff\	[8aa-\	.
=30	=30	=30	=30	=30
4A-\	4a-/	8ff\]	8aa-\]	.
.	.	4ee-\	4gg-\	V7
4A-\	4a-/	.	.	.
.	.	[8dd-\	[8ff\	I64
=31	=31	=31	=31	=31
4A-\	4a-/	8dd-\]	8ff\]	.
.	.	4cc/	4ee-\	V
*	*clefF4	*clefF4	*	*
4AA-/	4A-\	.	.	.
.	.	[8f\	[8dd-\	I64
=32	=32	=32	=32	=32
!!linebreak:original
4AA-/	4A-\	8f\]	8dd-\]	.
.	.	4d-\	4b-/	vi42
4AA-/	4A-\	.	.	.
.	.	8B-\	8g/	viio6/V
=33	=33	=33	=33	=33
4AA-/	4A-\	8B-\L	8g/L	V
.	.	8c\J	8a-/J	.
4r	4r	4r	4r	.
=34	=34	=34	=34	=34
2r	2r	4r	4r	.
.	.	8r	8r	.
*	*	*clefG2	*	*
.	.	8f/	8a-/	I
=35	=35	=35	=35	=35
2r	2r	8g-/L	8b-/L	I
.	.	8a-/J	8cc/J	.
.	.	8b-/L	8dd-\L	.
.	.	8cc/J	8ee-\J	.
=36	=36	=36	=36	=36
4r	4r	8dd-\L	8ff\L	I
.	.	8ee-\J	8gg-\J	.
8r	8r	8ff\L	8aa-\L	.
8d-\	8f\	8dd-\J	8ff\J	.
=37	=37	=37	=37	=37
8c\L	8e-\L	8ee-\L	8gg-\L	V65
8B-\J	8d-\J	8ff\J	8aa-\J	.
8A-\L	8c\L	8gg-\L	8bb-\L	.
8G-\J	8B-\J	8aa-\J	8ccc\J	.
=38	=38	=38	=38	=38
!!pagebreak:original
8F/L	8A-\L	8bb-\L	8ddd-\L	I
8E-/J	8G-\J	8ccc\J	8eee-\J	.
4D-'/	4F'\	8ddd-\L	8fff\L	.
.	.	8ddd-\J	8fff\J	.
=39	=39	=39	=39	=39
*clefG2	*clefG2	*	*	*
4g/	[2dd-\	8bb-\	8eee-\	V65/V
.	.	4bb-\	4eee-\	.
4a-/	.	.	.	V
.	.	[8aa-\	[8eee-\	.
=40	=40	=40	=40	=40
4b-/	2dd-\_	8aa-\]	8eee-\]	V43/V
.	.	4gg\	4eee-\	.
4a-/	.	.	.	V
.	.	8aa-\	[8eee-\	.
=41	=41	=41	=41	=41
4g/	2dd-\_	8bb-\	8eee-\]	V65/V
.	.	4bb-\	4eee-\	.
4a-/	.	.	.	V
.	.	[8aa-\	[8eee-\	.
=42	=42	=42	=42	=42
4b-/	2dd-\]	8aa-\]	8eee-\]	V65/V
.	.	4gg\	4eee-\	.
4g/	.	.	.	.
.	.	8bb-\	8eee-\	.
=43	=43	=43	=43	=43
!!linebreak:original
[2a-/	[4.ff\	[2aa-\	[4.ddd-\	C64
.	16ff\LL]	.	16ddd-\LL]	.
.	16ee-\JJ	.	16ccc\JJ	.
=44	=44	=44	=44	=44
2a-/_	[4.ff\	2aa-\_	[4.ddd-\	.
.	16ff\LL]	.	16ddd-\LL]	.
.	16ee-\JJ	.	16ccc\JJ	.
=45	=45	=45	=45	=45
4a-/]	4ff\	4aa-\]	8ddd-\L	.
.	.	.	8ccc\J	.
4r	4r	4r	8bb-\L	.
.	.	.	8aa-\J	.
=46	=46	=46	=46	=46
2r	2r	2r	8gg\L	.
.	.	.	8gg-\J	.
.	.	.	8ff\L	.
.	.	.	8ee-\J	.
=47	=47	=47	=47	=47
*clefF4	*	*	*	*
[2A-\	2f/	2a-/	[2dd-\	.
=48	=48	=48	=48	=48
2A-\]	4e-/	2g-/	4dd-\]	V7
.	4c/	.	8.ee-\L	.
.	.	.	16dd-\Jk	.
=49	=49	=49	=49	=49
8D-/L	4d-/	4.f/	4.dd-\	I
8D-/J	.	.	.	.
8D-/L	4r	.	.	.
8D-/J	.	8a-/	8ff\	.
=50	=50	=50	=50	=50
!!linebreak:original
8D-/L	8r	8b-/L	8gg-\L	.
8D-/J	8e-/	8g-/J	8ee-\J	.
8D-/L	8f/L	8f/L	8dd-/L	.
8D-/J	8g-/J	8e-/J	8cc/J	.
=51	=51	=51	=51	=51
8D-/L	4f/	4.f/	4.dd-\	.
8D-/J	.	.	.	.
8D-/L	4r	.	.	.
8D-/J	.	8ff\	8aa-\	.
=52	=52	=52	=52	=52
8D-/L	8r	8gg-\L	8bb-\L	.
8D-/J	8c/	8ee-\J	8gg-\J	.
8D-/L	8d-/L	8dd-/L	8ff\L	.
8D-/J	8e-/J	8cc/J	8ee-\J	.
=53	=53	=53	=53	=53
8D-/L	4d-/	4.dd-\	4.ff\	.
8D-/J	.	.	.	.
8D-/L	4r	.	.	.
8D-/J	.	8f/	8aa-\	.
=54	=54	=54	=54	=54
8D-/L	8r	8b-/L	8gg-\L	.
8D-/J	8e-/	8g-/J	8ee-\J	.
8D-/L	8f/L	8f/L	8dd-/L	.
8D-/J	8g-/J	8e-/J	8cc/J	.
=55	=55	=55	=55	=55
4D-/	4f/	4f/	[2dd-\	.
4r	4r	4r	.	.
=56	=56	=56	=56	=56
2r	2r	2r	4dd-\]	.
.	.	.	4r	.
*-	*-	*-	*-	*-
